X:38
T: BLAEH SCHAEFCHEN BLAEH
N: K0259
O: Europa, Mitteleuropa, Deutschland, Erfurt, Stotternheim
R: Kinder -, Kose -, Scherz - Lied
M: 2/4
L: 1/8
K: G
 | d2BA | G2z
d | dcBA | G2z
G | BBBB | c2c
c | AAAA | d2d
d | dcBA | G2z2

